telma/img/buttons/mode/add.svg

<?xml version="1.0" encoding="UTF-8" standalone="no"?>
<!-- Created with Inkscape (http://www.inkscape.org/) -->
<svg
   xmlns:dc="http://purl.org/dc/elements/1.1/"
   xmlns:cc="http://creativecommons.org/ns#"
   xmlns:rdf="http://www.w3.org/1999/02/22-rdf-syntax-ns#"
   xmlns:svg="http://www.w3.org/2000/svg"
   xmlns="http://www.w3.org/2000/svg"
   xmlns:xlink="http://www.w3.org/1999/xlink"
   xmlns:sodipodi="http://sodipodi.sourceforge.net/DTD/sodipodi-0.dtd"
   xmlns:inkscape="http://www.inkscape.org/namespaces/inkscape"
   width="600"
   height="600"
   id="svg2"
   sodipodi:version="0.32"
   inkscape:version="0.46"
   version="1.0"
   sodipodi:docname="select.svg"
   inkscape:output_extension="org.inkscape.output.svg.inkscape"
   inkscape:export-filename="D:\Documents and Settings\Маша\Рабочий стол\TELMA.V20\Projects\Interfaces\BaseInterface\SelectorModePanel\images\select.png"
   inkscape:export-xdpi="4.7978296"
   inkscape:export-ydpi="4.7978296">
  <defs
     id="defs4">
    <linearGradient
       id="linearGradient3220">
      <stop
         style="stop-color:#ff0000;stop-opacity:1;"
         offset="0"
         id="stop3222" />
      <stop
         style="stop-color:#ff0000;stop-opacity:0;"
         offset="1"
         id="stop3224" />
    </linearGradient>
    <linearGradient
       inkscape:collect="always"
       id="linearGradient5811">
      <stop
         offset="0"
         id="stop5813"
         style="stop-color:#ff0000;stop-opacity:1;" />
      <stop
         offset="1"
         id="stop5815"
         style="stop-color:#ff0000;stop-opacity:0;" />
    </linearGradient>
    <linearGradient
       id="linearGradient3253">
      <stop
         style="stop-color:#ff0000;stop-opacity:1;"
         offset="0"
         id="stop3255" />
      <stop
         style="stop-color:#ff0000;stop-opacity:0;"
         offset="1"
         id="stop3257" />
    </linearGradient>
    <linearGradient
       id="linearGradient4618">
      <stop
         style="stop-color:#0088ff;stop-opacity:0.70355731;"
         offset="0"
         id="stop4620" />
      <stop
         style="stop-color:#ffffff;stop-opacity:0;"
         offset="1"
         id="stop4622" />
    </linearGradient>
    <linearGradient
       id="linearGradient3176">
      <stop
         id="stop3178"
         offset="0"
         style="stop-color:#ff0000;stop-opacity:1;" />
      <stop
         id="stop3180"
         offset="1"
         style="stop-color:#00d63b;stop-opacity:0;" />
    </linearGradient>
    <linearGradient
       id="linearGradient3170">
      <stop
         style="stop-color:#ff0000;stop-opacity:1;"
         offset="0"
         id="stop3172" />
      <stop
         style="stop-color:#00d63b;stop-opacity:0;"
         offset="1"
         id="stop3174" />
    </linearGradient>
    <linearGradient
       id="linearGradient3164">
      <stop
         id="stop3166"
         offset="0"
         style="stop-color:#ff0000;stop-opacity:1;" />
      <stop
         id="stop3168"
         offset="1"
         style="stop-color:#00d63b;stop-opacity:0;" />
    </linearGradient>
    <linearGradient
       id="linearGradient5422">
      <stop
         style="stop-color:#ff0000;stop-opacity:1;"
         offset="0"
         id="stop5424" />
      <stop
         style="stop-color:#00d63b;stop-opacity:0;"
         offset="1"
         id="stop5426" />
    </linearGradient>
    <inkscape:perspective
       sodipodi:type="inkscape:persp3d"
       inkscape:vp_x="0 : 526.18109 : 1"
       inkscape:vp_y="6.1230318e-14 : 1000 : 0"
       inkscape:vp_z="744.09448 : 526.18109 : 1"
       inkscape:persp3d-origin="372.04724 : 350.78739 : 1"
       id="perspective10" />
    <linearGradient
       inkscape:collect="always"
       xlink:href="#linearGradient5811"
       id="linearGradient5817"
       x1="307.33307"
       y1="355.52408"
       x2="289.80975"
       y2="210.71429"
       gradientUnits="userSpaceOnUse" />
    <linearGradient
       inkscape:collect="always"
       xlink:href="#linearGradient5811"
       id="linearGradient2433"
       gradientUnits="userSpaceOnUse"
       x1="307.33307"
       y1="355.52408"
       x2="321.12448"
       y2="215.76506"
       gradientTransform="translate(-598.80063,-7.8571555)" />
    <linearGradient
       inkscape:collect="always"
       xlink:href="#linearGradient3220"
       id="linearGradient3226"
       x1="864.32391"
       y1="399.90057"
       x2="751.79718"
       y2="152.03796"
       gradientUnits="userSpaceOnUse"
       gradientTransform="translate(-508.57142,-30.714286)" />
  </defs>
  <sodipodi:namedview
     id="base"
     pagecolor="#ffffff"
     bordercolor="#666666"
     borderopacity="1.0"
     gridtolerance="10000"
     guidetolerance="10"
     objecttolerance="10"
     inkscape:pageopacity="0.0"
     inkscape:pageshadow="2"
     inkscape:zoom="0.98994949"
     inkscape:cx="194.66823"
     inkscape:cy="259.34047"
     inkscape:document-units="px"
     inkscape:current-layer="layer1"
     showgrid="false"
     showguides="true"
     inkscape:showpageshadow="false"
     inkscape:window-width="1029"
     inkscape:window-height="676"
     inkscape:window-x="108"
     inkscape:window-y="140"
     showborder="true"
     inkscape:guide-bbox="true">
    <inkscape:grid
       type="xygrid"
       visible="true"
       enabled="true"
       id="grid2393" />
    <sodipodi:guide
       orientation="1,0"
       position="-104.04571,216.17265"
       id="guide3186" />
  </sodipodi:namedview>
  <metadata
     id="metadata7">
    <rdf:RDF>
      <cc:Work
         rdf:about="">
        <dc:format>image/svg+xml</dc:format>
        <dc:type
           rdf:resource="http://purl.org/dc/dcmitype/StillImage" />
      </cc:Work>
    </rdf:RDF>
  </metadata>
  <g
     inkscape:label="Layer 1"
     inkscape:groupmode="layer"
     id="layer1">
    <rect
       ry="90"
       rx="90"
       y="10.602222"
       x="11.58176"
       height="576.74463"
       width="577.10175"
       id="rect2390"
       style="opacity:1;fill:none;fill-opacity:1;stroke:none;stroke-width:1;stroke-linecap:round;stroke-linejoin:miter;stroke-miterlimit:4;stroke-dasharray:none;stroke-dashoffset:0;stroke-opacity:1"
       inkscape:export-filename="P:\TELMA.V20\telma.v20_10_11\Projects\Interfaces\BaseInterface\panels\SelectorModePanel\images\select.png"
       inkscape:export-xdpi="4.9935446"
       inkscape:export-ydpi="4.9935446" />
    <rect
       style="opacity:1;fill:none;fill-opacity:0;stroke:none;stroke-width:23.16965866000000000;stroke-linecap:round;stroke-linejoin:miter;stroke-miterlimit:4;stroke-dasharray:none;stroke-dashoffset:0;stroke-opacity:1"
       id="rect5264"
       width="577.10175"
       height="576.74463"
       x="11.581718"
       y="11.612374"
       rx="90"
       ry="90"
       inkscape:export-filename="D:\Documents and Settings\Маша\Рабочий стол\TELMA.V20\Projects\Interfaces\BaseInterface\SelectorModePanel\images\select.png"
       inkscape:export-xdpi="4.8006859"
       inkscape:export-ydpi="4.8006859" />
  </g>
  <g
     inkscape:groupmode="layer"
     id="layer2"
     inkscape:label="Линия" />
  <g
     inkscape:groupmode="layer"
     id="layer4"
     inkscape:label="Strelki" />
  <g
     inkscape:groupmode="layer"
     id="layer3"
     inkscape:label="Узел" />
  <g
     inkscape:groupmode="layer"
     id="layer5"
     inkscape:label="Текст">
    <rect
       ry="46.42857"
       rx="45.714283"
       y="258.39963"
       x="127.06234"
       height="92.85714"
       width="345.71429"
       id="rect5819"
       style="opacity:1;fill:#ffffff;fill-opacity:1;stroke:none;stroke-width:8.19099998;stroke-linecap:round;stroke-linejoin:round;stroke-miterlimit:4;stroke-dasharray:none;stroke-dashoffset:0;stroke-opacity:1" />
    <rect
       transform="matrix(0,-1,1,0,0,0)"
       style="opacity:1;fill:#ffffff;fill-opacity:1;stroke:#000000;stroke-width:0;stroke-linecap:round;stroke-linejoin:round;stroke-miterlimit:4;stroke-dasharray:none;stroke-dashoffset:0;stroke-opacity:1"
       id="rect2435"
       width="345.71429"
       height="92.85714"
       x="-470.94348"
       y="250.71429"
       rx="45.714283"
       ry="46.42857" />
    <path
       style="fill:url(#linearGradient3226);fill-opacity:1;fill-rule:evenodd;stroke:#000000;stroke-width:8;stroke-linecap:butt;stroke-linejoin:miter;stroke-miterlimit:4;stroke-dasharray:none;stroke-opacity:1"
       d="M 295.25747,125.32367 C 295.25747,125.32367 286.67117,126.58636 283.89325,127.34397 C 281.11533,128.10159 277.07472,130.12189 274.80188,131.13205 C 272.52904,132.1422 266.9732,136.43535 265.45797,137.4455 C 263.94274,138.45565 262.68005,139.46581 259.64959,143.75895 C 256.61913,148.0521 255.60898,150.32494 254.09375,154.87063 C 252.57852,159.41632 250.30568,163.20439 250.30568,168.00261 C 250.30568,172.80084 250.30568,182.39729 250.30568,196.28689 C 250.30568,210.17648 250.30568,257.90619 250.30568,257.90619 L 170.25109,258.15873 C 170.25109,258.15873 162.42241,259.16888 160.4021,259.67396 C 158.3818,260.17903 156.36149,260.43157 152.82596,262.45188 C 149.29043,264.47218 147.52266,264.97726 144.74474,267.50264 C 141.96682,270.02802 139.1889,272.04833 137.42113,274.57371 C 135.65337,277.09909 134.89575,278.36178 133.12798,281.1397 C 131.36022,283.91762 129.59245,288.21077 128.83484,290.23107 C 128.07722,292.25138 127.06707,298.05975 126.81453,302.3529 C 126.56199,306.64605 127.06707,312.20189 127.82468,315.73742 C 128.5823,319.27296 131.36022,325.08134 132.37037,327.10164 C 133.38052,329.12195 137.92621,335.4354 139.69398,337.20317 C 141.46174,338.97093 145.75489,343.01154 147.7752,344.0217 C 149.7955,345.03185 151.56327,346.79962 155.85642,348.06231 C 160.14956,349.325 164.44271,350.33515 166.46302,350.84023 C 168.48332,351.3453 250.30568,351.09276 250.30568,351.09276 L 250.81076,432.91512 C 250.81076,432.91512 251.82091,437.46081 252.32598,439.98619 C 252.83106,442.51157 254.34629,445.54203 255.86152,447.56233 C 257.37675,449.58264 259.39705,452.61309 261.41736,455.13848 C 263.43766,457.66386 269.49858,462.96716 271.26634,463.97731 C 273.03411,464.98746 283.13564,468.77554 285.40848,469.78569 C 287.68132,470.79584 296.7727,471.80599 299.04554,471.55345 C 301.31838,471.30092 306.36915,471.55345 310.15722,470.03823 C 313.94529,468.523 315.71306,469.02807 318.99605,466.50269 C 322.27905,463.97731 324.04682,463.2197 327.07727,460.44178 C 330.10773,457.66386 332.12804,455.39101 333.8958,453.11817 C 335.66357,450.84533 339.70418,443.77426 340.71433,441.24888 C 341.72449,438.7235 341.97702,436.70319 342.4821,433.16766 C 342.98718,429.63212 343.23971,350.84023 343.23971,350.84023 L 431.62806,350.84023 C 431.62806,350.84023 436.67882,349.83007 438.69913,349.325 C 440.71943,348.81992 445.26512,347.80977 447.03289,346.54708 C 448.80066,345.28439 453.59888,343.26408 456.12426,340.7387 C 458.64964,338.21332 460.41741,336.69809 462.94279,333.16256 C 465.46817,329.62702 470.01386,320.78819 470.51893,319.27296 C 471.02401,317.75773 472.79178,309.42397 472.53924,307.15113 C 472.2867,304.87828 472.03416,295.78691 471.27655,293.76661 C 470.51893,291.7463 469.00371,285.43285 466.73086,281.64478 C 464.45802,277.8567 460.16487,272.80594 458.14457,271.03817 C 456.12426,269.27041 451.0735,264.97726 448.80066,263.71457 C 446.52781,262.45188 440.97197,260.17903 437.1839,259.16888 C 433.39583,258.15873 427.33491,257.90619 427.33491,257.90619 L 343.23971,257.90619 L 342.73464,166.73992 C 342.73464,166.73992 342.4821,162.44678 340.96687,157.90109 C 339.45164,153.3554 335.41103,146.0318 333.39073,143.25388 C 331.37042,140.47596 324.55189,134.66758 323.03666,133.65743 C 321.52143,132.64728 316.47067,129.86936 314.45037,129.11174 C 312.43006,128.35413 311.67245,127.09144 307.12676,126.58636 C 302.58107,126.08128 295.25747,125.32367 295.25747,125.32367 z"
       id="path3216" />
  </g>
</svg>

<svg xmlns="http://www.w3.org/2000/svg" width="600" height="600"><defs><linearGradient id="A" x1="355.752" y1="369.186" x2="243.226" y2="121.324" gradientUnits="userSpaceOnUse"><stop offset="0" stop-color="red"/><stop offset="1" stop-color="red" stop-opacity="0"/></linearGradient></defs><g fill="#fff"><rect ry="46.429" rx="45.714" y="258.4" x="127.062" height="92.857" width="345.714"/><rect transform="rotate(270)" width="345.714" height="92.857" x="-470.943" y="250.714" rx="45.714" ry="46.429"/></g><path d="M295.257 125.324s-8.586 1.263-11.364 2.02-6.819 2.778-9.091 3.788-7.829 5.303-9.344 6.313-2.778 2.02-5.808 6.313-4.041 6.566-5.556 11.112-3.788 8.334-3.788 13.132v28.284 61.619l-80.055.253s-7.829 1.01-9.849 1.515-4.041.758-7.576 2.778-5.303 2.525-8.081 5.051-5.556 4.546-7.324 7.071-2.525 3.788-4.293 6.566-3.536 7.071-4.293 9.091-1.768 7.829-2.02 12.122.253 9.849 1.01 13.385 3.536 9.344 4.546 11.364 5.556 8.334 7.324 10.102 6.061 5.808 8.081 6.819 3.788 2.778 8.081 4.041 8.586 2.273 10.607 2.778 83.843.253 83.843.253l.505 81.822 1.515 7.071c.505 2.525 2.02 5.556 3.536 7.576s3.536 5.051 5.556 7.576 8.081 7.829 9.849 8.839 11.869 4.798 14.142 5.808 11.364 2.02 13.637 1.768 7.324 0 11.112-1.515 5.556-1.01 8.839-3.536 5.051-3.283 8.081-6.061 5.051-5.051 6.819-7.324 5.808-9.344 6.819-11.869 1.263-4.546 1.768-8.081.758-82.327.758-82.327h88.388l7.071-1.515c2.02-.505 6.566-1.515 8.334-2.778s6.566-3.283 9.091-5.808 4.293-4.041 6.819-7.576 7.071-12.374 7.576-13.89 2.273-9.849 2.02-12.122-.505-11.364-1.263-13.385-2.273-8.334-4.546-12.122-6.566-8.839-8.586-10.607-7.071-6.061-9.344-7.324-7.829-3.536-11.617-4.546-9.849-1.263-9.849-1.263H343.24l-.505-91.166s-.253-4.293-1.768-8.839-5.556-11.869-7.576-14.647-8.839-8.586-10.354-9.596-6.566-3.788-8.586-4.546-2.778-2.02-7.324-2.525l-11.869-1.263z" fill="url(#A)" fill-rule="evenodd" stroke="#000" stroke-width="8"/></svg>
